X: 1530
T: O Güzel Gözlerine Hayrân Olayım
C: Dellalzâde İsmail Efendi
O: Turkey
F: http://compmusic.upf.edu/node/140
N: isfahan--yuruksemai--yuruksemai--o_guzler--dellalzade_haci_ismail_efendi
N: makam= isfahan
N: form= yuruksemai
N: usul= yuruksemai = 6/8
M: 6/8
L: 1/16
K: C _2/4B   
Q: 1/4=78
%%MIDI tuningsystem comma53
d6^c2 =B4{c}B2c2 d4z4  | g2f2f2e2 e2fge2d2 d2cde2ed  | 
w:  Ah  *  o  *  *  gü zel   |  göz *  *  *  le *  *  ri *  ne   | 
d8 d2e2d2c2 B3AG4  | z4G4 d4c4 d2e2f2g2  | \
w:   |  hay rân  o la  | 
e4d4 {e}d4e4 d2^c=Bc2d2  | 
w:  yım    | 
^c4d16z4  | e4{f}d4 {e}c4{d}B4 A4z4  | \
w:  Yâr   |  yâr   | 
=B4c4 B4A4 A2^GAB3A  | ^G4A16z4  | 
w:  hay rân  o la yım   |  dost    | 
d6^c2 =B4{c}B2c2 d4z4  | g2f2f2e2 e2fge2d2 d2cde2ed  | 
w:  Ah  *  o  *  *  gü zel   |  göz *  *  *  le *  *  ri *  ne   | 
d8 d2e2d2c2 B3AG4  | z4G4 d4c4 d2e2f2g2  | \
w:   |  hay rân  o la  | 
e4d4 {e}d4e4 d2^c=Bc2d2  | 
w:  yım    | 
^c4d16z4  | e4{f}d4 {e}c4{d}B4 A4z4  | \
w:  Yâr   |  yâr   | 
=B4c4 B4A4 A2^GAB3A  | ^G4A16z4  | 
w:  hay rân  o la yım   |  dost    | 
e16 e2f2e2d2  | d16-d4z4  | e8 e4e2d2 c4z4  | \
w:  Hey   |  yâr   |  şûh_ i  si *  tem  | 
d4e4 ^3/4f4g4 a4z4  | a2g2{a}g2f2 {g}f2e2f2e2 f4z4  | 
w:  kâr    |  Be *  *  li  *  *  be *  li  *  ey   | 
f2e2a2g2 f2e2e2d2 d2c2e2d2  | c4d8d2e^3/4f g4z4  | \
w:  gam *  *  *  ze *  si  *  hûn  |  hâr   *  SAZ  | 
g12g2g^3/4f g4z4  | 
w:  Yâr   | 
g2a6 a2g2f2e2 f4z4  | e2f2a2g2 f2e2e2d2 d2c2d2e2  | \
w:  yâr   |  şûh_ *  *  *  i  *  ce *  fâ    | 
d4e8d2e^3/4f g4z4  | 
w:  kâr   *  SAZ  | 
g12g2g^3/4f g4z4  | g2a6 a2g2f2e2 f4z4  | \
w:  Yâr   |  yâr   | 
e2f2a2g2 f2e2e2d2 d2c2d2e2  | 
w:  şûh_ *  *  *  i  *  ce *  fâ    | 
d4e8z4 e6d2  | z12  | eddc d2e2 e2z2  | \
w:  *  *  Can   |  |  ten *  *  *  de  gö nül   | 
eddc d2e2 e2z2  | 
w:  sen *  *  *  de   Ne dir   | 
eddc d2e^3/4f g2=fe  | b2ag g^2/4ffe e3d  | g12  | \
w:  sen *  *  *  de  he *  mân   |  ey  *  *  *  *  *  *  cân    |  Yâr   | 
g2g^3/4f g4 z4  | 
w:   | 
g2a6 a2g2  | f2e2 f4 z4  | e2f2 a2g2 f2e2  | \
w:  yâr   |   |  şûh_ *  *  *  i   | 
e2d2 d2c2 d2e2  | d4 e8  | 
w:  ce *  fâ    |  kâr    | 
d2e^3/4f g4 z4  | g12  | g2g^3/4f g4 z4  | \
w:  SAZ  |  Yâr   |   | 
g2a6 a2g2  | f2e2 f4 z4  | e2f2 a2g2 f2e2  | 
w:  yâr   |   |  şûh_ *  *  *  i   | 
e2d2 d2c2 d2e2  | d4 e8  | z4 e6d2  | z12  | \
w:  ce *  fâ    |   |  Can   |  | 
eddc d2e2 e2z2  | eddc d2e2 e2z2  | 
w:  ten *  *  *  de  gö nül   |  sen *  *  *  de   Ne dir   | 
eddc d2e^3/4f g2=fe  | b2ag g^2/4ffe e2z2  | \
w:  sen *  *  *  de  he *  mân   |  ey    | 
ef3 fefe d2z2  | 
w:  A man   | 
de3 eded c2z2  | cd3 dcdc B2z2  | A2B2 c2d2 e2z2  | 
w:  a man   |  a man   |  ah    | 
z2e2 e2ed d2z2  | d2dB cBcB cBBA  | A2B2 c2d2 e2z2  | 
w:  Bir  na zar  *  kıl   |  şu  der *  *  *  di *  me   |  vay    | 
z24  | z4e4 e2d2d2g2 d4z4  | d4d2B2 c2B2c2B2 d2B2B2A2  | \
w:  |  Bir  na *  zar  *  kıl   |  şu  der *  *  *  di *  me   | 
A12c2BA A4z4  | 
w:  vay   SAZ  | 
|


